cheelee/dist/images/facebook.svg

<svg width="14" height="29" viewBox="0 0 14 29" fill="none" xmlns="http://www.w3.org/2000/svg">
<path d="M2.9619 28.3456C2.96773 28.2549 2.96773 28.1639 2.9619 28.0732V14.1373H0.0996094V9.28278H3.02103V8.91573C3.02103 7.82643 3.02103 6.73712 3.02103 5.64782C3.0295 4.44737 3.35608 3.27066 3.9673 2.23782C4.54355 1.29566 5.46444 0.61595 6.5339 0.343413C7.16071 0.153016 7.80788 0.0377078 8.46183 0C10.0467 0 11.6435 0 13.1929 0V4.85454H12.8972H10.2597C10.076 4.86385 9.89369 4.89162 9.71556 4.93743C9.47053 4.98974 9.2514 5.12593 9.09595 5.32261C8.9405 5.5193 8.85842 5.76412 8.86393 6.01486C8.86393 7.0568 8.86393 8.1224 8.86393 9.17618C8.86393 9.17618 8.86393 9.17618 8.86393 9.24722H13.252L12.7316 14.1373H8.81664V28.014C8.81664 28.1324 8.81664 28.2508 8.81664 28.3692L2.9619 28.3456Z" fill="#01FFC2"/>
</svg>

<svg xmlns="http://www.w3.org/2000/svg" width="14" height="29" fill="none" viewBox="0 0 14 29"><path fill="#01FFC2" d="M2.962 28.346q.009-.137 0-.273V14.137H.1V9.283h2.92V5.648a6.8 6.8 0 0 1 .946-3.41A4.24 4.24 0 0 1 6.534.343 8.3 8.3 0 0 1 8.462 0h4.73v4.855H10.26q-.276.014-.544.082a1.076 1.076 0 0 0-.852 1.078v3.232h4.388l-.52 4.89H8.817V28.37z"/></svg>
